X: 3427
T: "Bussen" 
C: Magnus Samuelsson 
C: Arr. K. Pettersson, 2007 
Z: .andersson 
M: 6/8 
L: 1/8 
K: A 
Q: 180 

V:1 
|: A(ce) a3 | ({b}age) f3 | ({g}fed) c(Ac) | B(c^d) e3 |
A(ce) a3 | ({b}age) f3 | ({g}fed) c(Ac) | B(AG) A3:|
|: B2[Be] c2[ce] | d2[de] c2[ce] | B2[Be] c2[ce] | d(cA) B2B |
B2[Be] c2[ce] | d2[de] c2[ce] | a(gf) e(dc) | B(AG) A3 :| 

V:2 
|: E(AB) c3 | c(AE) D3 | F(DF) E(CE) | ^D(EF) G3 |
E(AB) c3 | c(AE) D3 | F(DF) E(CE) | D(B,D) C3 :|
|: E2E E(FG) | F(ED) D(EF) | E2E E(FG) | F(ED) E3 |
E2E EG2 | F(ED) D(EF) | e(dc) B(AG) | F(ED) C3 :|

V:3 
K: bass
|: A,,2A,, A,,2A,, | A,,B,,C, D,2D, | D,C,B,, A,,A,,2 | B,,2B,, E,,2E,, |
E,,F,,G,, A,,2A,, | A,,B,,C, D,2D, | D,C,B,, A,,A,,2 | E,,2E,, A,,2A,, :|
|: E,,2E,, E,,2E,, | E,,2E,, D,,2D,, | E,,2E,, E,,2E,, | E,,2E,, G,,2E,, |
E,,2E,, E,,2E,, | E,,2E,, D,,2D,, | E,,2E,, E,,2E,, | E,,F,,G,, A,,3 :|

(:musicend:)
(:music:)
